icons/heart-add-fill.svg

<svg viewBox="0 0 24 24" fill="currentColor" xmlns="http://www.w3.org/2000/svg"><path d="M19.0001 13.9999V16.9999H22.0001V18.9999H18.9991L19.0001 21.9999H17.0001L16.9991 18.9999H14.0001V16.9999H17.0001V13.9999H19.0001ZM20.2426 4.75736C22.4033 6.92253 22.5715 10.3141 20.7498 12.667C19.9261 12.2403 18.9911 12 18 12C14.6863 12 12 14.6863 12 18C12 19.0089 12.249 19.9596 12.6889 20.794L11.9999 21.485L3.52138 12.993C1.41705 10.637 1.49571 7.01901 3.75736 4.75736C6.02157 2.49315 9.64519 2.41687 12.001 4.52853C14.35 2.42 17.98 2.49 20.2426 4.75736Z"/></svg>

<svg xmlns="http://www.w3.org/2000/svg" viewBox="0 0 24 24">
    <g>
        <path fill="none" d="M0 0H24V24H0z"/>
        <path d="M19 14v3h3v2h-3v3h-2v-3h-3v-2h3v-3h2zm1.243-9.243c2.16 2.166 2.329 5.557.507 7.91C19.926 12.24 18.99 12 18 12c-3.314 0-6 2.686-6 6 0 1.009.249 1.96.689 2.794l-.69.691-8.478-8.492c-2.104-2.356-2.025-5.974.236-8.236 2.265-2.264 5.888-2.34 8.244-.228 2.349-2.109 5.979-2.039 8.242.228z"/>
    </g>
</svg>
